www/assets/icons/summarize.svg

<svg xmlns="http://www.w3.org/2000/svg" width="24" height="24" viewBox="0 0 24 24" fill='currentColor'><path d="M15 3H5c-1.1 0-1.99.9-1.99 2L3 19c0 1.1.89 2 1.99 2H19c1.1 0 2-.9 2-2V9zM8 17c-.55 0-1-.45-1-1s.45-1 1-1 1 .45 1 1-.45 1-1 1m0-4c-.55 0-1-.45-1-1s.45-1 1-1 1 .45 1 1-.45 1-1 1m0-4c-.55 0-1-.45-1-1s.45-1 1-1 1 .45 1 1-.45 1-1 1m6 1V4.5l5.5 5.5z"/></svg>

<svg width="24" height="24" viewBox="0 0 24 24" xmlns="http://www.w3.org/2000/svg" fill='currentColor'><path d="M15 3H5C3.9 3 3.01 3.9 3.01 5L3 19C3 20.1 3.89 21 4.99 21H19C20.1 21 21 20.1 21 19V9L15 3ZM8 17C7.45 17 7 16.55 7 16C7 15.45 7.45 15 8 15C8.55 15 9 15.45 9 16C9 16.55 8.55 17 8 17ZM8 13C7.45 13 7 12.55 7 12C7 11.45 7.45 11 8 11C8.55 11 9 11.45 9 12C9 12.55 8.55 13 8 13ZM8 9C7.45 9 7 8.55 7 8C7 7.45 7.45 7 8 7C8.55 7 9 7.45 9 8C9 8.55 8.55 9 8 9ZM14 10V4.5L19.5 10H14Z"/></svg>
